X: 23671
T: Linen Cap, The
R: reel
M: 4/4
K: Dmajor
d2AG FDAF|EFGA BEec|d2AG FDAF|1 GBAF D/D/D D2|2 GBAF D/D/D DE||
F/E/DA,D FDAD|EFGA BEAG|F/E/DA,D FDAF|GBAF D2DE|
F/E/DA,D FDAD|EFGA BEAc|d2AG FDAF|GBAF D/D/D D2||
g|a2(ed) cdec|Bcde fBBg|a2(ed) cdec|dfed cAAg|
a2(ed)cdec|Bcde fefg|agae faec|dfed cA A||
B|cAEA cdec|Bcde fBBd|cAEA cdec|dfed cAAB|
cAEA cdec|Bcde fefg|agae faec||

